X:788
T:Perth Hunt, The
T:Perthshire Hunt, The
R:Reel
B:The Athole Collection
M:C|
L:1/8
K:A
F|E2 CE A,ECE|A,ECE FB,B,F|~E CE A,ECA|ceBd cAA:|
|:e|cAeA fAeA|cAeA fBBe|1 cAeAfAeA|EFAB cAA:|2 ceAc dfBc|EFAB cAA|]
